third_party/noto/noto_2/emoji_u1f349.svg

<svg enable-background="new 0 0 128 128" viewBox="0 0 128 128" xmlns="http://www.w3.org/2000/svg" xmlns:xlink="http://www.w3.org/1999/xlink"><path d="m94.98 112.21c32.69-18.28 37.44-58.46 19.95-87.39l-111.51 67.43c19.84 31.55 51.72 42.24 91.56 19.96z" fill="#7CB342"/><defs><path id="g" d="m94.98 112.21c32.69-18.28 37.44-58.46 19.95-87.39l-111.51 67.43c19.84 31.55 51.72 42.24 91.56 19.96z"/></defs><clipPath><use xlink:href="#g"/></clipPath><path d="M94.41,101.49C123.67,79.18,120,57,111.53,32l-2.27-3.76L9.09,88.82l2.27,3.76 C25.82,116.49,64.67,124.17,94.41,101.49z" fill="#FFF9C4"/><linearGradient id="f" x1="63.818" x2="63.818" y1="56.107" y2="106.21" gradientTransform="matrix(-.8557 .5175 .5175 .8557 84.72 -22.547)" gradientUnits="userSpaceOnUse"><stop stop-color="#FF1744" offset="0"/><stop stop-color="#FF2249" offset=".1617"/><stop stop-color="#FF4157" offset=".4492"/><stop stop-color="#FF6A6A" offset=".7738"/></linearGradient><path d="m82.69 103.74 5.6-3.39c24.03-14.53 31.73-45.79 17.2-69.82l-12.25 7.41-7.32 4.43-10.73 6.49-21.71 13.12-14.37 8.69-9.45 5.71-16.8 10.16c14.54 24.03 45.8 31.73 69.83 17.2z" fill="url(#f)"/><linearGradient id="e" x1="55.54" x2="55.54" y1="60.428" y2="70.411" gradientTransform="matrix(-1 0 0 1 128.35 0)" gradientUnits="userSpaceOnUse"><stop stop-color="#1A1A1A" offset="0"/><stop stop-color="#292929" offset=".2772"/><stop stop-color="#515151" offset=".8111"/><stop stop-color="#616161" offset="1"/></linearGradient><path d="m74.99 69.73c-5.64 3.76-5.92-9.3-5.92-9.3s11.57 5.54 5.92 9.3z" fill="url(#e)"/><linearGradient id="d" x1="30.588" x2="30.588" y1="50.263" y2="59.272" gradientTransform="matrix(-1 0 0 1 128.35 0)" gradientUnits="userSpaceOnUse"><stop stop-color="#1A1A1A" offset="0"/><stop stop-color="#292929" offset=".2772"/><stop stop-color="#515151" offset=".8111"/><stop stop-color="#616161" offset="1"/></linearGradient><path d="m101.05 58.18c-4.77 4.82-7.67-7.92-7.67-7.92s12.44 3.1 7.67 7.92z" fill="url(#d)"/><linearGradient id="c" x1="36.438" x2="36.438" y1="72.455" y2="82.817" gradientTransform="matrix(-1 0 0 1 128.35 0)" gradientUnits="userSpaceOnUse"><stop stop-color="#1A1A1A" offset="0"/><stop stop-color="#292929" offset=".2772"/><stop stop-color="#515151" offset=".8111"/><stop stop-color="#616161" offset="1"/></linearGradient><path d="m93.5 82.33c-6.01 3.15-4.92-9.87-4.92-9.87s10.93 6.71 4.92 9.87z" fill="url(#c)"/><linearGradient id="b" x1="56.445" x2="56.445" y1="89.589" y2="99.572" gradientTransform="matrix(-1 0 0 1 128.35 0)" gradientUnits="userSpaceOnUse"><stop stop-color="#1A1A1A" offset="0"/><stop stop-color="#292929" offset=".2772"/><stop stop-color="#515151" offset=".8111"/><stop stop-color="#616161" offset="1"/></linearGradient><path d="m74.09 98.89c-5.64 3.76-5.92-9.3-5.92-9.3s11.56 5.54 5.92 9.3z" fill="url(#b)"/><linearGradient id="a" x1="74.558" x2="74.558" y1="77.454" y2="87.437" gradientTransform="matrix(-1 0 0 1 128.35 0)" gradientUnits="userSpaceOnUse"><stop stop-color="#1A1A1A" offset="0"/><stop stop-color="#292929" offset=".2772"/><stop stop-color="#515151" offset=".8111"/><stop stop-color="#616161" offset="1"/></linearGradient><path d="m55.97 86.76c-5.64 3.76-5.92-9.3-5.92-9.3s11.57 5.54 5.92 9.3z" fill="url(#a)"/><linearGradient id="h" x1="89.41" x2="89.41" y1="89.227" y2="99.21" gradientTransform="matrix(-1 0 0 1 128.35 0)" gradientUnits="userSpaceOnUse"><stop stop-color="#1A1A1A" offset="0"/><stop stop-color="#292929" offset=".2772"/><stop stop-color="#515151" offset=".8111"/><stop stop-color="#616161" offset="1"/></linearGradient><path d="m41.12 98.53c-5.64 3.76-5.92-9.3-5.92-9.3s11.57 5.54 5.92 9.3z" fill="url(#h)"/><g opacity=".2"><path d="m113.86 28.97c7.93 14.54 10.16 31.42 6.1 46.77-3.87 14.64-13.01 26.34-26.44 33.85-13.56 7.58-26.51 11.43-38.48 11.43-18.76 0-35.1-9.6-47.41-27.8l106.23-64.25m1.07-4.15-111.51 67.43c12.66 20.13 30.22 31.76 51.62 31.76 12.14 0 25.52-3.74 39.94-11.81 32.69-18.27 37.45-58.45 19.95-87.38z" fill="#424242"/></g></svg>

<svg width="128" height="128" style="enable-background:new 0 0 128 128;" xmlns="http://www.w3.org/2000/svg" xmlns:xlink="http://www.w3.org/1999/xlink">
  <g id="Layer_1">
    <path d="M94.98,112.21c32.69-18.28,37.44-58.46,19.95-87.39l0,0L3.42,92.25l0,0 C23.26,123.8,55.14,134.49,94.98,112.21z" style="fill:#7CB342;"/>
    <g>
      <defs>
        <path id="SVGID_1_" d="M94.98,112.21c32.69-18.28,37.44-58.46,19.95-87.39l0,0L3.42,92.25l0,0 C23.26,123.8,55.14,134.49,94.98,112.21z"/>
      </defs>
      <clipPath id="SVGID_3_">
        <use style="overflow:visible;" xlink:href="#SVGID_1_"/>
      </clipPath>
    </g>
    <path d="M94.41,101.49C123.67,79.18,120,57,111.53,32l-2.27-3.76L9.09,88.82l2.27,3.76 C25.82,116.49,64.67,124.17,94.41,101.49z" style="fill:#FFF9C4;"/>
    <linearGradient id="SVGID_4_" gradientTransform="matrix(-0.8557 0.5175 0.5175 0.8557 84.7197 -22.5474)" gradientUnits="userSpaceOnUse" x1="63.8176" x2="63.8176" y1="56.1074" y2="106.2063">
      <stop offset="0" style="stop-color:#FF1744"/>
      <stop offset="0.1617" style="stop-color:#FF2249"/>
      <stop offset="0.4492" style="stop-color:#FF4157"/>
      <stop offset="0.7738" style="stop-color:#FF6A6A"/>
    </linearGradient>
    <path d="M82.69,103.74l5.6-3.39c24.03-14.53,31.73-45.79,17.2-69.82l0,0l-12.25,7.41l-7.32,4.43 l-10.73,6.49L53.48,61.98l-14.37,8.69l-9.45,5.71l-16.8,10.16l0,0C27.4,110.57,58.66,118.27,82.69,103.74z" style="fill:url(#SVGID_4_);"/>
    <linearGradient id="SVGID_5_" gradientTransform="matrix(-1 0 0 1 128.3454 0)" gradientUnits="userSpaceOnUse" x1="55.5398" x2="55.5398" y1="60.4283" y2="70.4113">
      <stop offset="0" style="stop-color:#1A1A1A"/>
      <stop offset="0.2772" style="stop-color:#292929"/>
      <stop offset="0.8111" style="stop-color:#515151"/>
      <stop offset="1" style="stop-color:#616161"/>
    </linearGradient>
    <path d="M74.99,69.73c-5.64,3.76-5.92-9.3-5.92-9.3S80.64,65.97,74.99,69.73z" style="fill:url(#SVGID_5_);"/>
    <linearGradient id="SVGID_6_" gradientTransform="matrix(-1 0 0 1 128.3454 0)" gradientUnits="userSpaceOnUse" x1="30.5883" x2="30.5883" y1="50.263" y2="59.2718">
      <stop offset="0" style="stop-color:#1A1A1A"/>
      <stop offset="0.2772" style="stop-color:#292929"/>
      <stop offset="0.8111" style="stop-color:#515151"/>
      <stop offset="1" style="stop-color:#616161"/>
    </linearGradient>
    <path d="M101.05,58.18c-4.77,4.82-7.67-7.92-7.67-7.92S105.82,53.36,101.05,58.18z" style="fill:url(#SVGID_6_);"/>
    <linearGradient id="SVGID_7_" gradientTransform="matrix(-1 0 0 1 128.3454 0)" gradientUnits="userSpaceOnUse" x1="36.4378" x2="36.4378" y1="72.4552" y2="82.8172">
      <stop offset="0" style="stop-color:#1A1A1A"/>
      <stop offset="0.2772" style="stop-color:#292929"/>
      <stop offset="0.8111" style="stop-color:#515151"/>
      <stop offset="1" style="stop-color:#616161"/>
    </linearGradient>
    <path d="M93.5,82.33c-6.01,3.15-4.92-9.87-4.92-9.87S99.51,79.17,93.5,82.33z" style="fill:url(#SVGID_7_);"/>
    <linearGradient id="SVGID_8_" gradientTransform="matrix(-1 0 0 1 128.3454 0)" gradientUnits="userSpaceOnUse" x1="56.4454" x2="56.4454" y1="89.5889" y2="99.5719">
      <stop offset="0" style="stop-color:#1A1A1A"/>
      <stop offset="0.2772" style="stop-color:#292929"/>
      <stop offset="0.8111" style="stop-color:#515151"/>
      <stop offset="1" style="stop-color:#616161"/>
    </linearGradient>
    <path d="M74.09,98.89c-5.64,3.76-5.92-9.3-5.92-9.3S79.73,95.13,74.09,98.89z" style="fill:url(#SVGID_8_);"/>
    <linearGradient id="SVGID_9_" gradientTransform="matrix(-1 0 0 1 128.3454 0)" gradientUnits="userSpaceOnUse" x1="74.5576" x2="74.5576" y1="77.4537" y2="87.4367">
      <stop offset="0" style="stop-color:#1A1A1A"/>
      <stop offset="0.2772" style="stop-color:#292929"/>
      <stop offset="0.8111" style="stop-color:#515151"/>
      <stop offset="1" style="stop-color:#616161"/>
    </linearGradient>
    <path d="M55.97,86.76c-5.64,3.76-5.92-9.3-5.92-9.3S61.62,83,55.97,86.76z" style="fill:url(#SVGID_9_);"/>
    <linearGradient id="SVGID_10_" gradientTransform="matrix(-1 0 0 1 128.3454 0)" gradientUnits="userSpaceOnUse" x1="89.4096" x2="89.4096" y1="89.2266" y2="99.2096">
      <stop offset="0" style="stop-color:#1A1A1A"/>
      <stop offset="0.2772" style="stop-color:#292929"/>
      <stop offset="0.8111" style="stop-color:#515151"/>
      <stop offset="1" style="stop-color:#616161"/>
    </linearGradient>
    <path d="M41.12,98.53c-5.64,3.76-5.92-9.3-5.92-9.3S46.77,94.77,41.12,98.53z" style="fill:url(#SVGID_10_);"/>
    <g style="opacity:0.2;">
      <path d="M113.86,28.97c7.93,14.54,10.16,31.42,6.1,46.77c-3.87,14.64-13.01,26.34-26.44,33.85 c-13.56,7.58-26.51,11.43-38.48,11.43c-18.76,0-35.1-9.6-47.41-27.8L113.86,28.97 M114.93,24.82L3.42,92.25l0,0 c12.66,20.13,30.22,31.76,51.62,31.76c12.14,0,25.52-3.74,39.94-11.81C127.67,93.93,132.43,53.75,114.93,24.82L114.93,24.82 L114.93,24.82z" style="fill:#424242;"/>
    </g>
  </g>
  <g id="Layer_2" style="display:none;">
    <g style="display:inline;">
      <g style="opacity:0.6;">
        <circle cx="64" cy="64" r="28" style="opacity:0.61;fill:none;stroke:#000000;stroke-width:0.2625;stroke-miterlimit:10;"/>
        <line style="opacity:0.61;fill:none;stroke:#000000;stroke-width:0.25;stroke-miterlimit:10;" x1="84" x2="84" y1="0" y2="128"/>
        <line style="opacity:0.61;fill:none;stroke:#000000;stroke-width:0.25;stroke-miterlimit:10;" x1="44" x2="44" y1="0" y2="128"/>
        <line style="opacity:0.61;fill:none;stroke:#000000;stroke-width:0.25;stroke-miterlimit:10;" x1="64" x2="64" y1="0" y2="128"/>
        <line style="opacity:0.61;fill:none;stroke:#000000;stroke-width:0.25;stroke-miterlimit:10;" x1="128" x2="0" y1="64" y2="64"/>
        <line style="opacity:0.61;fill:none;stroke:#000000;stroke-width:0.25;stroke-miterlimit:10;" x1="128" x2="0" y1="44" y2="44"/>
        <line style="opacity:0.61;fill:none;stroke:#000000;stroke-width:0.25;stroke-miterlimit:10;" x1="128" x2="0" y1="83.75" y2="83.75"/>
        <line style="opacity:0.61;fill:none;stroke:#000000;stroke-width:0.25;stroke-miterlimit:10;" x1="128" x2="0" y1="128" y2="0"/>
        <line style="opacity:0.61;fill:none;stroke:#000000;stroke-width:0.25;stroke-miterlimit:10;" x1="0" x2="128" y1="128" y2="0"/>
        <g style="opacity:0.61;">
          <path d="M64,4.26c32.94,0,59.74,26.8,59.74,59.74S96.94,123.74,64,123.74S4.26,96.94,4.26,64S31.06,4.26,64,4.26 M64,4 C30.86,4,4,30.86,4,64s26.86,60,60,60s60-26.86,60-60S97.14,4,64,4L64,4z"/>
        </g>
        <path d="M107.97,115.97H20.03 c-4.42,0-8.03-3.61-8.03-8.03V20.03c0-4.42,3.61-8.03,8.03-8.03h87.94c4.42,0,8.03,3.61,8.03,8.03v87.91 C116,112.36,112.39,115.97,107.97,115.97z" style="opacity:0.61;fill:none;stroke:#000000;stroke-width:0.2578;stroke-miterlimit:10;"/>
        <path d="M100,124H28c-4.4,0-8-3.6-8-8 V12c0-4.4,3.6-8,8-8h72c4.4,0,8,3.6,8,8v104C108,120.4,104.4,124,100,124z" style="opacity:0.61;fill:none;stroke:#000000;stroke-width:0.2628;stroke-miterlimit:10;"/>
        <path d="M113.77,108H14.23 C8.6,108,4,103.4,4,97.77V30.28c0-5.63,4.6-10.23,10.23-10.23h99.54c5.63,0,10.23,4.6,10.23,10.23v67.48 C124,103.4,119.4,108,113.77,108z" style="opacity:0.61;fill:none;stroke:#000000;stroke-width:0.2627;stroke-miterlimit:10;"/>
      </g>
      <g>
        <g style="opacity:0.2;">
          <defs>
            <rect id="SVGID_2_" height="128" style="opacity:0.2;" width="128" x="0" y="0"/>
          </defs>
          <clipPath id="SVGID_11_">
            <use style="overflow:visible;" xlink:href="#SVGID_2_"/>
          </clipPath>
          <g style="clip-path:url(#SVGID_11_);">
            <g>
              <line style="fill:none;stroke:#000000;stroke-width:0.25;stroke-miterlimit:10;" x1="-28" x2="-28" y1="160" y2="-32"/>
              <line style="fill:none;stroke:#000000;stroke-width:0.25;stroke-miterlimit:10;" x1="-24" x2="-24" y1="160" y2="-32"/>
              <line style="fill:none;stroke:#000000;stroke-width:0.25;stroke-miterlimit:10;" x1="-20" x2="-20" y1="160" y2="-32"/>
              <line style="fill:none;stroke:#000000;stroke-width:0.25;stroke-miterlimit:10;" x1="-16" x2="-16" y1="160" y2="-32"/>
              <line style="fill:none;stroke:#000000;stroke-width:0.25;stroke-miterlimit:10;" x1="-12" x2="-12" y1="160" y2="-32"/>
              <line style="fill:none;stroke:#000000;stroke-width:0.25;stroke-miterlimit:10;" x1="-8" x2="-8" y1="160" y2="-32"/>
              <line style="fill:none;stroke:#000000;stroke-width:0.25;stroke-miterlimit:10;" x1="-4" x2="-4" y1="160" y2="-32"/>
              <line style="fill:none;stroke:#000000;stroke-width:0.25;stroke-miterlimit:10;" x1="0" x2="0" y1="160" y2="-32"/>
              <line style="fill:none;stroke:#000000;stroke-width:0.25;stroke-miterlimit:10;" x1="4" x2="4" y1="160" y2="-32"/>
              <line style="fill:none;stroke:#000000;stroke-width:0.25;stroke-miterlimit:10;" x1="8" x2="8" y1="160" y2="-32"/>
              <line style="fill:none;stroke:#000000;stroke-width:0.25;stroke-miterlimit:10;" x1="12" x2="12" y1="160" y2="-32"/>
              <line style="fill:none;stroke:#000000;stroke-width:0.25;stroke-miterlimit:10;" x1="16" x2="16" y1="160" y2="-32"/>
              <line style="fill:none;stroke:#000000;stroke-width:0.25;stroke-miterlimit:10;" x1="20" x2="20" y1="160" y2="-32"/>
              <line style="fill:none;stroke:#000000;stroke-width:0.25;stroke-miterlimit:10;" x1="24" x2="24" y1="160" y2="-32"/>
              <line style="fill:none;stroke:#000000;stroke-width:0.25;stroke-miterlimit:10;" x1="28" x2="28" y1="160" y2="-32"/>
              <line style="fill:none;stroke:#000000;stroke-width:0.25;stroke-miterlimit:10;" x1="32" x2="32" y1="160" y2="-32"/>
              <line style="fill:none;stroke:#000000;stroke-width:0.25;stroke-miterlimit:10;" x1="36" x2="36" y1="160" y2="-32"/>
              <line style="fill:none;stroke:#000000;stroke-width:0.25;stroke-miterlimit:10;" x1="40" x2="40" y1="160" y2="-32"/>
              <line style="fill:none;stroke:#000000;stroke-width:0.25;stroke-miterlimit:10;" x1="44" x2="44" y1="160" y2="-32"/>
              <line style="fill:none;stroke:#000000;stroke-width:0.25;stroke-miterlimit:10;" x1="48" x2="48" y1="160" y2="-32"/>
              <line style="fill:none;stroke:#000000;stroke-width:0.25;stroke-miterlimit:10;" x1="52" x2="52" y1="160" y2="-32"/>
              <line style="fill:none;stroke:#000000;stroke-width:0.25;stroke-miterlimit:10;" x1="56" x2="56" y1="160" y2="-32"/>
              <line style="fill:none;stroke:#000000;stroke-width:0.25;stroke-miterlimit:10;" x1="60" x2="60" y1="160" y2="-32"/>
              <line style="fill:none;stroke:#000000;stroke-width:0.25;stroke-miterlimit:10;" x1="64" x2="64" y1="160" y2="-32"/>
              <line style="fill:none;stroke:#000000;stroke-width:0.25;stroke-miterlimit:10;" x1="68" x2="68" y1="160" y2="-32"/>
              <line style="fill:none;stroke:#000000;stroke-width:0.25;stroke-miterlimit:10;" x1="72" x2="72" y1="160" y2="-32"/>
              <line style="fill:none;stroke:#000000;stroke-width:0.25;stroke-miterlimit:10;" x1="76" x2="76" y1="160" y2="-32"/>
              <line style="fill:none;stroke:#000000;stroke-width:0.25;stroke-miterlimit:10;" x1="80" x2="80" y1="160" y2="-32"/>
              <line style="fill:none;stroke:#000000;stroke-width:0.25;stroke-miterlimit:10;" x1="84" x2="84" y1="160" y2="-32"/>
              <line style="fill:none;stroke:#000000;stroke-width:0.25;stroke-miterlimit:10;" x1="88" x2="88" y1="160" y2="-32"/>
              <line style="fill:none;stroke:#000000;stroke-width:0.25;stroke-miterlimit:10;" x1="92" x2="92" y1="160" y2="-32"/>
              <line style="fill:none;stroke:#000000;stroke-width:0.25;stroke-miterlimit:10;" x1="96" x2="96" y1="160" y2="-32"/>
              <line style="fill:none;stroke:#000000;stroke-width:0.25;stroke-miterlimit:10;" x1="100" x2="100" y1="160" y2="-32"/>
              <line style="fill:none;stroke:#000000;stroke-width:0.25;stroke-miterlimit:10;" x1="104" x2="104" y1="160" y2="-32"/>
              <line style="fill:none;stroke:#000000;stroke-width:0.25;stroke-miterlimit:10;" x1="108" x2="108" y1="160" y2="-32"/>
              <line style="fill:none;stroke:#000000;stroke-width:0.25;stroke-miterlimit:10;" x1="112" x2="112" y1="160" y2="-32"/>
              <line style="fill:none;stroke:#000000;stroke-width:0.25;stroke-miterlimit:10;" x1="116" x2="116" y1="160" y2="-32"/>
              <line style="fill:none;stroke:#000000;stroke-width:0.25;stroke-miterlimit:10;" x1="120" x2="120" y1="160" y2="-32"/>
              <line style="fill:none;stroke:#000000;stroke-width:0.25;stroke-miterlimit:10;" x1="124" x2="124" y1="160" y2="-32"/>
              <line style="fill:none;stroke:#000000;stroke-width:0.25;stroke-miterlimit:10;" x1="128" x2="128" y1="160" y2="-32"/>
              <line style="fill:none;stroke:#000000;stroke-width:0.25;stroke-miterlimit:10;" x1="132" x2="132" y1="160" y2="-32"/>
              <line style="fill:none;stroke:#000000;stroke-width:0.25;stroke-miterlimit:10;" x1="136" x2="136" y1="160" y2="-32"/>
              <line style="fill:none;stroke:#000000;stroke-width:0.25;stroke-miterlimit:10;" x1="137" x2="137" y1="166.05" y2="-25.95"/>
              <line style="fill:none;stroke:#000000;stroke-width:0.25;stroke-miterlimit:10;" x1="144" x2="144" y1="160" y2="-32"/>
              <line style="fill:none;stroke:#000000;stroke-width:0.25;stroke-miterlimit:10;" x1="148" x2="148" y1="160" y2="-32"/>
              <line style="fill:none;stroke:#000000;stroke-width:0.25;stroke-miterlimit:10;" x1="152" x2="152" y1="160" y2="-32"/>
              <line style="fill:none;stroke:#000000;stroke-width:0.25;stroke-miterlimit:10;" x1="156" x2="156" y1="160" y2="-32"/>
            </g>
            <g>
              <line style="fill:none;stroke:#000000;stroke-width:0.25;stroke-miterlimit:10;" x1="-32" x2="160" y1="-28" y2="-28"/>
              <line style="fill:none;stroke:#000000;stroke-width:0.25;stroke-miterlimit:10;" x1="-32" x2="160" y1="-24" y2="-24"/>
              <line style="fill:none;stroke:#000000;stroke-width:0.25;stroke-miterlimit:10;" x1="-32" x2="160" y1="-20" y2="-20"/>
              <line style="fill:none;stroke:#000000;stroke-width:0.25;stroke-miterlimit:10;" x1="-32" x2="160" y1="-16" y2="-16"/>
              <line style="fill:none;stroke:#000000;stroke-width:0.25;stroke-miterlimit:10;" x1="-32" x2="160" y1="-12" y2="-12"/>
              <line style="fill:none;stroke:#000000;stroke-width:0.25;stroke-miterlimit:10;" x1="-32" x2="160" y1="-8" y2="-8"/>
              <line style="fill:none;stroke:#000000;stroke-width:0.25;stroke-miterlimit:10;" x1="-32" x2="160" y1="-4" y2="-4"/>
              <line style="fill:none;stroke:#000000;stroke-width:0.25;stroke-miterlimit:10;" x1="-32" x2="160" y1="0" y2="0"/>
              <line style="fill:none;stroke:#000000;stroke-width:0.25;stroke-miterlimit:10;" x1="-32" x2="160" y1="4" y2="4"/>
              <line style="fill:none;stroke:#000000;stroke-width:0.25;stroke-miterlimit:10;" x1="-32" x2="160" y1="8" y2="8"/>
              <line style="fill:none;stroke:#000000;stroke-width:0.25;stroke-miterlimit:10;" x1="-32" x2="160" y1="12" y2="12"/>
              <line style="fill:none;stroke:#000000;stroke-width:0.25;stroke-miterlimit:10;" x1="-32" x2="160" y1="16" y2="16"/>
              <line style="fill:none;stroke:#000000;stroke-width:0.25;stroke-miterlimit:10;" x1="-32" x2="160" y1="20" y2="20"/>
              <line style="fill:none;stroke:#000000;stroke-width:0.25;stroke-miterlimit:10;" x1="-32" x2="160" y1="24" y2="24"/>
              <line style="fill:none;stroke:#000000;stroke-width:0.25;stroke-miterlimit:10;" x1="-32" x2="160" y1="28" y2="28"/>
              <line style="fill:none;stroke:#000000;stroke-width:0.25;stroke-miterlimit:10;" x1="-32" x2="160" y1="32" y2="32"/>
              <line style="fill:none;stroke:#000000;stroke-width:0.25;stroke-miterlimit:10;" x1="-32" x2="160" y1="36" y2="36"/>
              <line style="fill:none;stroke:#000000;stroke-width:0.25;stroke-miterlimit:10;" x1="-32" x2="160" y1="40" y2="40"/>
              <line style="fill:none;stroke:#000000;stroke-width:0.25;stroke-miterlimit:10;" x1="-32" x2="160" y1="44" y2="44"/>
              <line style="fill:none;stroke:#000000;stroke-width:0.25;stroke-miterlimit:10;" x1="-32" x2="160" y1="48" y2="48"/>
              <line style="fill:none;stroke:#000000;stroke-width:0.25;stroke-miterlimit:10;" x1="-32" x2="160" y1="52" y2="52"/>
              <line style="fill:none;stroke:#000000;stroke-width:0.25;stroke-miterlimit:10;" x1="-32" x2="160" y1="56" y2="56"/>
              <line style="fill:none;stroke:#000000;stroke-width:0.25;stroke-miterlimit:10;" x1="-32" x2="160" y1="60" y2="60"/>
              <line style="fill:none;stroke:#000000;stroke-width:0.25;stroke-miterlimit:10;" x1="-32" x2="160" y1="64" y2="64"/>
              <line style="fill:none;stroke:#000000;stroke-width:0.25;stroke-miterlimit:10;" x1="-32" x2="160" y1="68" y2="68"/>
              <line style="fill:none;stroke:#000000;stroke-width:0.25;stroke-miterlimit:10;" x1="-32" x2="160" y1="72" y2="72"/>
              <line style="fill:none;stroke:#000000;stroke-width:0.25;stroke-miterlimit:10;" x1="-32" x2="160" y1="76" y2="76"/>
              <line style="fill:none;stroke:#000000;stroke-width:0.25;stroke-miterlimit:10;" x1="-32" x2="160" y1="80" y2="80"/>
              <line style="fill:none;stroke:#000000;stroke-width:0.25;stroke-miterlimit:10;" x1="-32" x2="160" y1="84" y2="84"/>
              <line style="fill:none;stroke:#000000;stroke-width:0.25;stroke-miterlimit:10;" x1="-32" x2="160" y1="88" y2="88"/>
              <line style="fill:none;stroke:#000000;stroke-width:0.25;stroke-miterlimit:10;" x1="-32" x2="160" y1="92" y2="92"/>
              <line style="fill:none;stroke:#000000;stroke-width:0.25;stroke-miterlimit:10;" x1="-32" x2="160" y1="96" y2="96"/>
              <line style="fill:none;stroke:#000000;stroke-width:0.25;stroke-miterlimit:10;" x1="-32" x2="160" y1="100" y2="100"/>
              <line style="fill:none;stroke:#000000;stroke-width:0.25;stroke-miterlimit:10;" x1="-32" x2="160" y1="104" y2="104"/>
              <line style="fill:none;stroke:#000000;stroke-width:0.25;stroke-miterlimit:10;" x1="-32" x2="160" y1="108" y2="108"/>
              <line style="fill:none;stroke:#000000;stroke-width:0.25;stroke-miterlimit:10;" x1="-32" x2="160" y1="112" y2="112"/>
              <line style="fill:none;stroke:#000000;stroke-width:0.25;stroke-miterlimit:10;" x1="-32" x2="160" y1="116" y2="116"/>
              <line style="fill:none;stroke:#000000;stroke-width:0.25;stroke-miterlimit:10;" x1="-32" x2="160" y1="120" y2="120"/>
              <line style="fill:none;stroke:#000000;stroke-width:0.25;stroke-miterlimit:10;" x1="-32" x2="160" y1="124" y2="124"/>
              <line style="fill:none;stroke:#000000;stroke-width:0.25;stroke-miterlimit:10;" x1="-32" x2="160" y1="128" y2="128"/>
              <line style="fill:none;stroke:#000000;stroke-width:0.25;stroke-miterlimit:10;" x1="-32" x2="160" y1="132" y2="132"/>
              <line style="fill:none;stroke:#000000;stroke-width:0.25;stroke-miterlimit:10;" x1="-32" x2="160" y1="136" y2="136"/>
              <line style="fill:none;stroke:#000000;stroke-width:0.25;stroke-miterlimit:10;" x1="-32" x2="160" y1="140" y2="140"/>
              <line style="fill:none;stroke:#000000;stroke-width:0.25;stroke-miterlimit:10;" x1="-32" x2="160" y1="144" y2="144"/>
              <line style="fill:none;stroke:#000000;stroke-width:0.25;stroke-miterlimit:10;" x1="-32" x2="160" y1="148" y2="148"/>
              <line style="fill:none;stroke:#000000;stroke-width:0.25;stroke-miterlimit:10;" x1="-32" x2="160" y1="152" y2="152"/>
              <line style="fill:none;stroke:#000000;stroke-width:0.25;stroke-miterlimit:10;" x1="-32" x2="160" y1="156" y2="156"/>
            </g>
            <path d="M159.75-31.75v191.5h-191.5v-191.5H159.75 M160-32H-32v192h192V-32L160-32z"/>
          </g>
        </g>
        <g>
          <rect height="128" style="opacity:0.3;fill:#F44336;" width="4" x="0" y="0"/>
          <rect height="128" style="opacity:0.3;fill:#F44336;" width="4" x="124" y="0"/>
          <rect height="120" style="opacity:0.3;fill:#F44336;" transform="matrix(-1.836970e-16 1 -1 -1.836970e-16 66 -62)" width="4" x="62" y="-58"/>
          <rect height="120" style="opacity:0.3;fill:#F44336;" transform="matrix(-1.836970e-16 1 -1 -1.836970e-16 190 62)" width="4" x="62" y="66"/>
        </g>
      </g>
    </g>
  </g>
</svg>
